X:1
T:Hotaru Koi (Come Firefly)
C:Trad Japanese folk (pre-1900)
S:Public domain — traditional Japanese children's song
M:4/4
L:1/4
Q:1/4=68
K:G
H:Pentatonic (G A B D E). Gentle and slow. Arranged for D xiao, 2nd register.
H:Range G4-E5.
G2 A2 | B4 | A2 G2 | E4 |
G2 A2 | B2 d2 | B2 A2 | G4 |
d2 e2 | d2 B2 | A2 G2 | G4 |
G2 B2 | d2 B2 | A2 G2 | G4 |]
